icons/question-answer-line.svg

<svg viewBox="0 0 24 24" fill="currentColor" xmlns="http://www.w3.org/2000/svg"><path d="M5.45455 15L1 18.5V3C1 2.44772 1.44772 2 2 2H17C17.5523 2 18 2.44772 18 3V15H5.45455ZM4.76282 13H16V4H3V14.3851L4.76282 13ZM8 17H18.2372L20 18.3851V8H21C21.5523 8 22 8.44772 22 9V22.5L17.5455 19H9C8.44772 19 8 18.5523 8 18V17Z"/></svg>

<svg xmlns="http://www.w3.org/2000/svg" viewBox="0 0 24 24">
    <g>
        <path fill="none" d="M0 0h24v24H0z"/>
        <path d="M5.455 15L1 18.5V3a1 1 0 0 1 1-1h15a1 1 0 0 1 1 1v12H5.455zm-.692-2H16V4H3v10.385L4.763 13zM8 17h10.237L20 18.385V8h1a1 1 0 0 1 1 1v13.5L17.545 19H9a1 1 0 0 1-1-1v-1z"/>
    </g>
</svg>
